Newaita-dark/apps/64/smartgit.svg

<svg height="64pt" viewBox="0 0 64 64" width="64pt" xmlns="http://www.w3.org/2000/svg" xmlns:xlink="http://www.w3.org/1999/xlink"><linearGradient id="a" gradientUnits="userSpaceOnUse" x1="31.75304" x2="31.75304" y1="56.067872" y2="58.71396000006"><stop offset="0" stop-opacity=".27451"/><stop offset="1" stop-opacity="0"/></linearGradient><linearGradient id="b"><stop offset="0" stop-opacity=".313726"/><stop offset=".222222" stop-opacity=".27451"/><stop offset="1" stop-opacity="0"/></linearGradient><radialGradient id="c" cx="450.908936" cy="189.579361" gradientTransform="matrix(.00000035 -.156265 -.281277 -.0000002 106.24586 127.190665)" gradientUnits="userSpaceOnUse" r="21.166656" xlink:href="#b"/><radialGradient id="d" cx="450.908936" cy="189.579361" gradientTransform="matrix(-.00000035 .156265 .281277 .0000002 -42.409041 -15.054958)" gradientUnits="userSpaceOnUse" r="21.166656" xlink:href="#b"/><radialGradient id="e" cx="450.908936" cy="189.579361" gradientTransform="matrix(-.00000035 -.156265 .281277 -.0000002 -42.409041 127.190665)" gradientUnits="userSpaceOnUse" r="21.166656" xlink:href="#b"/><radialGradient id="f" cx="450.908936" cy="189.579361" gradientTransform="matrix(.00000035 .156265 -.281277 .0000002 106.245857 -15.054959)" gradientUnits="userSpaceOnUse" r="21.166656" xlink:href="#b"/><linearGradient id="g" gradientUnits="userSpaceOnUse" x1="31.753048" x2="31.753048" y1="56.067868" y2="5.79220799994"><stop offset="0" stop-color="#e0e0e0"/><stop offset="1" stop-color="#eee"/></linearGradient><linearGradient id="h" gradientUnits="userSpaceOnUse" x1="21.88691400006" x2="21.88691400006" y1="57.13006412482" y2="6.85440599994"><stop offset="0" stop-color="#7e57c2"/><stop offset="1" stop-color="#9575cd"/></linearGradient><linearGradient id="i" gradientTransform="matrix(-.125012 0 0 .125012 64.181086 30.172264)" gradientUnits="userSpaceOnUse" x1="179.812897" x2="179.812897" y1="205.05838" y2="-197.108292"><stop offset="0" stop-color="#42a5f5"/><stop offset="1" stop-color="#64b5f6"/></linearGradient><path d="m10.253906 56.066406h43.328125v2.648438h-43.328125zm0 0" fill="url(#a)"/><path d="m53.582031 56.066406h5.292969v-2.644531h-5.292969zm0 0" fill="url(#c)"/><path d="m10.253906 56.066406h-5.292968v2.648438h5.292968zm0 0" fill="url(#d)"/><path d="m10.253906 56.066406h-5.292968v-2.644531h5.292968zm0 0" fill="url(#e)"/><path d="m53.582031 56.066406h5.292969v2.648438h-5.292969zm0 0" fill="url(#f)"/><path d="m7.277344 5.792969h48.953125c1.09375 0 1.984375.886719 1.984375 1.984375v46.304687c0 1.097657-.890625 1.984375-1.984375 1.984375h-48.953125c-1.097656 0-1.984375-.886718-1.984375-1.984375v-46.304687c0-1.097656.886719-1.984375 1.984375-1.984375zm0 0" fill="url(#g)"/><path d="m5.292969 53.421875v.660156c0 1.101563.882812 1.984375 1.984375 1.984375h48.953125c1.097656 0 1.984375-.882812 1.984375-1.984375v-.660156c0 1.097656-.886719 1.984375-1.984375 1.984375h-48.953125c-1.101563 0-1.984375-.886719-1.984375-1.984375zm0 0" fill-opacity=".235294"/><path d="m7.277344 5.792969c-1.101563 0-1.984375.882812-1.984375 1.984375v.660156c0-1.097656.882812-1.984375 1.984375-1.984375h48.953125c1.097656 0 1.984375.886719 1.984375 1.984375v-.660156c0-1.101563-.886719-1.984375-1.984375-1.984375zm0 0" fill="#fff" fill-opacity=".784314"/><path d="m7.277344 5.605469c-1.199219 0-2.171875.972656-2.171875 2.171875v46.304687c0 1.203125.972656 2.171875 2.171875 2.171875h48.953125c1.199219 0 2.171875-.96875 2.171875-2.171875v-46.304687c0-1.199219-.972656-2.171875-2.171875-2.171875zm0 .375h48.953125c.996093 0 1.796875.796875 1.796875 1.796875v46.304687c0 1-.800782 1.796875-1.796875 1.796875h-48.953125c-1 0-1.796875-.796875-1.796875-1.796875v-46.304687c0-1 .796875-1.796875 1.796875-1.796875zm0 0" fill="#212121"/><path d="m28.488281 16.746094c-.453125.007812-.886719.171875-1.234375.457031l-13.230468 10.582031c-.472657.378906-.75.953125-.75 1.5625 0 .605469.277343 1.179688.75 1.558594l13.230468 10.582031c.558594.457031 1.316406.582031 1.988282.324219.671874-.261719 1.152343-.859375 1.257812-1.574219.105469-.710937-.183594-1.425781-.75-1.867187l-11.28125-9.023438 11.28125-9.027344c.679688-.527343.945312-1.429687.65625-2.242187-.285156-.8125-1.058594-1.347656-1.917969-1.332031zm0 0" fill="url(#h)"/><path d="m28.484375 16.746094c-.449219.007812-.882813.171875-1.230469.457031l-13.230468 10.582031c-.59375.476563-.863282 1.246094-.699219 1.992188.09375-.449219.34375-.847656.699219-1.132813l13.230468-10.585937c.347656-.285156.78125-.445313 1.230469-.453125.953125-.019531 1.785156.640625 1.988281 1.570312.28125-1.261719-.695312-2.453125-1.988281-2.429687zm-9.90625 12.601562-.109375.855469 11.28125 9.023437c.367188.289063.621094.691407.722656 1.148438.164063-.75-.117187-1.53125-.722656-2.003906zm0 0" fill="#fff" fill-opacity=".392157"/><path d="m30.457031 19.242188c-.109375.425781-.359375.808593-.707031 1.078124l-11.28125 9.027344.621094.496094 10.660156-8.53125c.628906-.488281.90625-1.300781.707031-2.070312zm-17.117187 10.601562c-.195313.757812.070312 1.5625.683594 2.054688l13.230468 10.582031c.667969.550781 1.613282.605469 2.339844.144531.730469-.464844 1.078125-1.34375.863281-2.179688-.171875.660157-.664062 1.1875-1.3125 1.398438-.652343.214844-1.363281.078125-1.890625-.355469l-13.230468-10.582031c-.335938-.273438-.578126-.644531-.683594-1.0625zm0 0" fill-opacity=".235294"/><path d="m35.089844 18.980469c.449218.007812.882812.167969 1.230468.453125l13.230469 10.585937c.476563.378907.75.953125.75 1.558594s-.273437 1.179687-.75 1.558594l-13.230469 10.585937c-.554687.457032-1.3125.578125-1.984374.320313-.671876-.257813-1.152344-.859375-1.257813-1.570313-.105469-.714844.179687-1.425781.75-1.871094l11.28125-9.023437-11.28125-9.023437c-.679687-.527344-.945313-1.433594-.660156-2.242188.289062-.8125 1.0625-1.347656 1.921875-1.332031zm0 0" fill="url(#i)"/><path d="m35.089844 18.980469c.449218.007812.882812.167969 1.230468.453125l13.230469 10.585937c.59375.476563.867188 1.246094.703125 1.988281-.097656-.445312-.34375-.847656-.703125-1.132812l-13.230469-10.582031c-.347656-.289063-.78125-.449219-1.230468-.457031-.953125-.015626-1.785156.640624-1.988282 1.570312-.277343-1.261719.695313-2.449219 1.988282-2.425781zm9.90625 12.597656.113281.855469-11.28125 9.027344c-.367187.285156-.625.691406-.722656 1.144531-.164063-.75.113281-1.527344.722656-2.003907zm0 0" fill="#fff" fill-opacity=".392157"/><path d="m33.121094 21.472656c.109375.429688.355468.808594.707031 1.082032l11.28125 9.023437-.621094.496094-10.660156-8.527344c-.628906-.488281-.90625-1.304687-.707031-2.074219zm17.117187 10.601563c.195313.761719-.074219 1.566406-.6875 2.054687l-13.230469 10.585938c-.667968.546875-1.609374.605468-2.339843.140625-.726563-.464844-1.074219-1.34375-.859375-2.179688.167968.660157.664062 1.191407 1.3125 1.402344.648437.210937 1.359375.078125 1.886718-.355469l13.230469-10.585937c.339844-.269531.578125-.644531.6875-1.0625zm0 0" fill-opacity=".235294"/><g fill="none" stroke="#212121" stroke-linecap="round" stroke-linejoin="round" stroke-width="3" transform="matrix(.125012 0 0 .125012 0 26.877566)"><path d="m227.884488-81.044042c-3.624654.062494-7.093073 1.374869-9.874057 3.655901l-105.833643 84.648166c-3.780889 3.030961-5.999427 7.624272-5.999427 12.498807 0 4.843287 2.218538 9.436599 5.999427 12.467559l105.833643 84.648167c4.468323 3.6559 10.530244 4.655805 15.904731 2.593502 5.374487-2.09355 9.21787-6.874344 10.061539-12.592548.84367-5.686956-1.468609-11.40516-5.999427-14.936073l-90.241382-72.180607 90.241382-72.211854c5.436981-4.218348 7.561778-11.436408 5.249499-17.935788-2.281032-6.499379-8.467941-10.78022-15.342285-10.655232zm0 0"/><path d="m280.691945-63.170749c3.593407.062494 7.061826 1.343622 9.84281 3.624654l105.833644 84.679413c3.812136 3.030961 5.999427 7.624272 5.999427 12.46756 0 4.843287-2.187291 9.436599-5.999427 12.467559l-105.833644 84.679414c-4.437076 3.655901-10.498997 4.624558-15.873484 2.562255s-9.21787-6.874343-10.061539-12.5613c-.843669-5.718204 1.437363-11.405161 5.999427-14.967321l90.241382-72.180607-90.241382-72.180607c-5.436981-4.218347-7.561778-11.467655-5.280746-17.935787 2.31228-6.49938 8.499189-10.780221 15.373532-10.655233zm0 0"/></g></svg>

<?xml version="1.0" encoding="UTF-8"?>
<svg xmlns="http://www.w3.org/2000/svg" xmlns:xlink="http://www.w3.org/1999/xlink" width="64pt" height="64pt" viewBox="0 0 64 64" version="1.1">
<defs>
<linearGradient id="linear0" gradientUnits="userSpaceOnUse" x1="254" y1="233.5" x2="254" y2="254.666672" gradientTransform="matrix(0.125012,0,0,0.125012,-0.00000763012,26.87757)">
<stop offset="0" style="stop-color:rgb(0%,0%,0%);stop-opacity:0.27451;"/>
<stop offset="1" style="stop-color:rgb(0%,0%,0%);stop-opacity:0;"/>
</linearGradient>
<radialGradient id="radial0" gradientUnits="userSpaceOnUse" cx="450.908936" cy="189.579361" fx="450.908936" fy="189.579361" r="21.166656" gradientTransform="matrix(0.000000348341,-0.156265,-0.281277,-0.000000203077,106.24586,127.190665)">
<stop offset="0" style="stop-color:rgb(0%,0%,0%);stop-opacity:0.313726;"/>
<stop offset="0.222222" style="stop-color:rgb(0%,0%,0%);stop-opacity:0.27451;"/>
<stop offset="1" style="stop-color:rgb(0%,0%,0%);stop-opacity:0;"/>
</radialGradient>
<radialGradient id="radial1" gradientUnits="userSpaceOnUse" cx="450.908936" cy="189.579361" fx="450.908936" fy="189.579361" r="21.166656" gradientTransform="matrix(-0.000000348341,0.156265,0.281277,0.000000203077,-42.409041,-15.054958)">
<stop offset="0" style="stop-color:rgb(0%,0%,0%);stop-opacity:0.313726;"/>
<stop offset="0.222222" style="stop-color:rgb(0%,0%,0%);stop-opacity:0.27451;"/>
<stop offset="1" style="stop-color:rgb(0%,0%,0%);stop-opacity:0;"/>
</radialGradient>
<radialGradient id="radial2" gradientUnits="userSpaceOnUse" cx="450.908936" cy="189.579361" fx="450.908936" fy="189.579361" r="21.166656" gradientTransform="matrix(-0.000000348341,-0.156265,0.281277,-0.000000203077,-42.409041,127.190665)">
<stop offset="0" style="stop-color:rgb(0%,0%,0%);stop-opacity:0.313726;"/>
<stop offset="0.222222" style="stop-color:rgb(0%,0%,0%);stop-opacity:0.27451;"/>
<stop offset="1" style="stop-color:rgb(0%,0%,0%);stop-opacity:0;"/>
</radialGradient>
<radialGradient id="radial3" gradientUnits="userSpaceOnUse" cx="450.908936" cy="189.579361" fx="450.908936" fy="189.579361" r="21.166656" gradientTransform="matrix(0.000000348341,0.156265,-0.281277,0.000000203077,106.245857,-15.054959)">
<stop offset="0" style="stop-color:rgb(0%,0%,0%);stop-opacity:0.313726;"/>
<stop offset="0.222222" style="stop-color:rgb(0%,0%,0%);stop-opacity:0.27451;"/>
<stop offset="1" style="stop-color:rgb(0%,0%,0%);stop-opacity:0;"/>
</radialGradient>
<linearGradient id="linear1" gradientUnits="userSpaceOnUse" x1="254" y1="233.5" x2="254" y2="-168.666672" gradientTransform="matrix(0.125012,0,0,0.125012,0,26.877566)">
<stop offset="0" style="stop-color:rgb(87.843138%,87.843138%,87.843138%);stop-opacity:1;"/>
<stop offset="1" style="stop-color:rgb(93.333334%,93.333334%,93.333334%);stop-opacity:1;"/>
</linearGradient>
<linearGradient id="linear2" gradientUnits="userSpaceOnUse" x1="179.916672" y1="233.499985" x2="179.916672" y2="-168.666672" gradientTransform="matrix(0.125012,0,0,0.125012,-0.604829,27.939764)">
<stop offset="0" style="stop-color:rgb(49.411765%,34.117648%,76.078433%);stop-opacity:1;"/>
<stop offset="1" style="stop-color:rgb(58.431375%,45.882353%,80.392158%);stop-opacity:1;"/>
</linearGradient>
<linearGradient id="linear3" gradientUnits="userSpaceOnUse" x1="179.812897" y1="205.05838" x2="179.812897" y2="-197.108292" gradientTransform="matrix(-0.125012,0,0,0.125012,64.181086,30.172264)">
<stop offset="0" style="stop-color:rgb(25.882354%,64.705884%,96.078432%);stop-opacity:1;"/>
<stop offset="1" style="stop-color:rgb(39.215687%,70.980394%,96.470588%);stop-opacity:1;"/>
</linearGradient>
</defs>
<g id="surface1">
<path style=" stroke:none;fill-rule:nonzero;fill:url(#linear0);" d="M 10.253906 56.066406 L 53.582031 56.066406 L 53.582031 58.714844 L 10.253906 58.714844 Z M 10.253906 56.066406 "/>
<path style=" stroke:none;fill-rule:nonzero;fill:url(#radial0);" d="M 53.582031 56.066406 L 58.875 56.066406 L 58.875 53.421875 L 53.582031 53.421875 Z M 53.582031 56.066406 "/>
<path style=" stroke:none;fill-rule:nonzero;fill:url(#radial1);" d="M 10.253906 56.066406 L 4.960938 56.066406 L 4.960938 58.714844 L 10.253906 58.714844 Z M 10.253906 56.066406 "/>
<path style=" stroke:none;fill-rule:nonzero;fill:url(#radial2);" d="M 10.253906 56.066406 L 4.960938 56.066406 L 4.960938 53.421875 L 10.253906 53.421875 Z M 10.253906 56.066406 "/>
<path style=" stroke:none;fill-rule:nonzero;fill:url(#radial3);" d="M 53.582031 56.066406 L 58.875 56.066406 L 58.875 58.714844 L 53.582031 58.714844 Z M 53.582031 56.066406 "/>
<path style=" stroke:none;fill-rule:nonzero;fill:url(#linear1);" d="M 7.277344 5.792969 L 56.230469 5.792969 C 57.324219 5.792969 58.214844 6.679688 58.214844 7.777344 L 58.214844 54.082031 C 58.214844 55.179688 57.324219 56.066406 56.230469 56.066406 L 7.277344 56.066406 C 6.179688 56.066406 5.292969 55.179688 5.292969 54.082031 L 5.292969 7.777344 C 5.292969 6.679688 6.179688 5.792969 7.277344 5.792969 Z M 7.277344 5.792969 "/>
<path style=" stroke:none;fill-rule:nonzero;fill:rgb(0%,0%,0%);fill-opacity:0.235294;" d="M 5.292969 53.421875 L 5.292969 54.082031 C 5.292969 55.183594 6.175781 56.066406 7.277344 56.066406 L 56.230469 56.066406 C 57.328125 56.066406 58.214844 55.183594 58.214844 54.082031 L 58.214844 53.421875 C 58.214844 54.519531 57.328125 55.40625 56.230469 55.40625 L 7.277344 55.40625 C 6.175781 55.40625 5.292969 54.519531 5.292969 53.421875 Z M 5.292969 53.421875 "/>
<path style=" stroke:none;fill-rule:nonzero;fill:rgb(100%,100%,100%);fill-opacity:0.784314;" d="M 7.277344 5.792969 C 6.175781 5.792969 5.292969 6.675781 5.292969 7.777344 L 5.292969 8.4375 C 5.292969 7.339844 6.175781 6.453125 7.277344 6.453125 L 56.230469 6.453125 C 57.328125 6.453125 58.214844 7.339844 58.214844 8.4375 L 58.214844 7.777344 C 58.214844 6.675781 57.328125 5.792969 56.230469 5.792969 Z M 7.277344 5.792969 "/>
<path style=" stroke:none;fill-rule:nonzero;fill:rgb(12.941177%,12.941177%,12.941177%);fill-opacity:1;" d="M 7.277344 5.605469 C 6.078125 5.605469 5.105469 6.578125 5.105469 7.777344 L 5.105469 54.082031 C 5.105469 55.285156 6.078125 56.253906 7.277344 56.253906 L 56.230469 56.253906 C 57.429688 56.253906 58.402344 55.285156 58.402344 54.082031 L 58.402344 7.777344 C 58.402344 6.578125 57.429688 5.605469 56.230469 5.605469 Z M 7.277344 5.980469 L 56.230469 5.980469 C 57.226562 5.980469 58.027344 6.777344 58.027344 7.777344 L 58.027344 54.082031 C 58.027344 55.082031 57.226562 55.878906 56.230469 55.878906 L 7.277344 55.878906 C 6.277344 55.878906 5.480469 55.082031 5.480469 54.082031 L 5.480469 7.777344 C 5.480469 6.777344 6.277344 5.980469 7.277344 5.980469 Z M 7.277344 5.980469 "/>
<path style=" stroke:none;fill-rule:nonzero;fill:url(#linear2);" d="M 28.488281 16.746094 C 28.035156 16.753906 27.601562 16.917969 27.253906 17.203125 L 14.023438 27.785156 C 13.550781 28.164062 13.273438 28.738281 13.273438 29.347656 C 13.273438 29.953125 13.550781 30.527344 14.023438 30.90625 L 27.253906 41.488281 C 27.8125 41.945312 28.570312 42.070312 29.242188 41.8125 C 29.914062 41.550781 30.394531 40.953125 30.5 40.238281 C 30.605469 39.527344 30.316406 38.8125 29.75 38.371094 L 18.46875 29.347656 L 29.75 20.320312 C 30.429688 19.792969 30.695312 18.890625 30.40625 18.078125 C 30.121094 17.265625 29.347656 16.730469 28.488281 16.746094 Z M 28.488281 16.746094 "/>
<path style=" stroke:none;fill-rule:nonzero;fill:rgb(100%,100%,100%);fill-opacity:0.392157;" d="M 28.484375 16.746094 C 28.035156 16.753906 27.601562 16.917969 27.253906 17.203125 L 14.023438 27.785156 C 13.429688 28.261719 13.160156 29.03125 13.324219 29.777344 C 13.417969 29.328125 13.667969 28.929688 14.023438 28.644531 L 27.253906 18.058594 C 27.601562 17.773438 28.035156 17.613281 28.484375 17.605469 C 29.4375 17.585938 30.269531 18.246094 30.472656 19.175781 C 30.753906 17.914062 29.777344 16.722656 28.484375 16.746094 Z M 18.578125 29.347656 L 18.46875 30.203125 L 29.75 39.226562 C 30.117188 39.515625 30.371094 39.917969 30.472656 40.375 C 30.636719 39.625 30.355469 38.84375 29.75 38.371094 Z M 18.578125 29.347656 "/>
<path style=" stroke:none;fill-rule:nonzero;fill:rgb(0%,0%,0%);fill-opacity:0.235294;" d="M 30.457031 19.242188 C 30.347656 19.667969 30.097656 20.050781 29.75 20.320312 L 18.46875 29.347656 L 19.089844 29.84375 L 29.75 21.3125 C 30.378906 20.824219 30.65625 20.011719 30.457031 19.242188 Z M 13.339844 29.84375 C 13.144531 30.601562 13.410156 31.40625 14.023438 31.898438 L 27.253906 42.480469 C 27.921875 43.03125 28.867188 43.085938 29.59375 42.625 C 30.324219 42.160156 30.671875 41.28125 30.457031 40.445312 C 30.285156 41.105469 29.792969 41.632812 29.144531 41.84375 C 28.492188 42.058594 27.78125 41.921875 27.253906 41.488281 L 14.023438 30.90625 C 13.6875 30.632812 13.445312 30.261719 13.339844 29.84375 Z M 13.339844 29.84375 "/>
<path style=" stroke:none;fill-rule:nonzero;fill:url(#linear3);" d="M 35.089844 18.980469 C 35.539062 18.988281 35.972656 19.148438 36.320312 19.433594 L 49.550781 30.019531 C 50.027344 30.398438 50.300781 30.972656 50.300781 31.578125 C 50.300781 32.183594 50.027344 32.757812 49.550781 33.136719 L 36.320312 43.722656 C 35.765625 44.179688 35.007812 44.300781 34.335938 44.042969 C 33.664062 43.785156 33.183594 43.183594 33.078125 42.472656 C 32.972656 41.757812 33.257812 41.046875 33.828125 40.601562 L 45.109375 31.578125 L 33.828125 22.554688 C 33.148438 22.027344 32.882812 21.121094 33.167969 20.3125 C 33.457031 19.5 34.230469 18.964844 35.089844 18.980469 Z M 35.089844 18.980469 "/>
<path style=" stroke:none;fill-rule:nonzero;fill:rgb(100%,100%,100%);fill-opacity:0.392157;" d="M 35.089844 18.980469 C 35.539062 18.988281 35.972656 19.148438 36.320312 19.433594 L 49.550781 30.019531 C 50.144531 30.496094 50.417969 31.265625 50.253906 32.007812 C 50.15625 31.5625 49.910156 31.160156 49.550781 30.875 L 36.320312 20.292969 C 35.972656 20.003906 35.539062 19.84375 35.089844 19.835938 C 34.136719 19.820312 33.304688 20.476562 33.101562 21.40625 C 32.824219 20.144531 33.796875 18.957031 35.089844 18.980469 Z M 44.996094 31.578125 L 45.109375 32.433594 L 33.828125 41.460938 C 33.460938 41.746094 33.203125 42.152344 33.105469 42.605469 C 32.941406 41.855469 33.21875 41.078125 33.828125 40.601562 Z M 44.996094 31.578125 "/>
<path style=" stroke:none;fill-rule:nonzero;fill:rgb(0%,0%,0%);fill-opacity:0.235294;" d="M 33.121094 21.472656 C 33.230469 21.902344 33.476562 22.28125 33.828125 22.554688 L 45.109375 31.578125 L 44.488281 32.074219 L 33.828125 23.546875 C 33.199219 23.058594 32.921875 22.242188 33.121094 21.472656 Z M 50.238281 32.074219 C 50.433594 32.835938 50.164062 33.640625 49.550781 34.128906 L 36.320312 44.714844 C 35.652344 45.261719 34.710938 45.320312 33.980469 44.855469 C 33.253906 44.390625 32.90625 43.511719 33.121094 42.675781 C 33.289062 43.335938 33.785156 43.867188 34.433594 44.078125 C 35.082031 44.289062 35.792969 44.15625 36.320312 43.722656 L 49.550781 33.136719 C 49.890625 32.867188 50.128906 32.492188 50.238281 32.074219 Z M 50.238281 32.074219 "/>
<path style="fill:none;stroke-width:3;stroke-linecap:round;stroke-linejoin:round;stroke:rgb(12.941177%,12.941177%,12.941177%);stroke-opacity:1;stroke-miterlimit:4;" d="M 227.884488 -81.044042 C 224.259834 -80.981548 220.791415 -79.669173 218.010431 -77.388141 L 112.176788 7.260025 C 108.395899 10.290986 106.177361 14.884297 106.177361 19.758832 C 106.177361 24.602119 108.395899 29.195431 112.176788 32.226391 L 218.010431 116.874558 C 222.478754 120.530458 228.540675 121.530363 233.915162 119.46806 C 239.289649 117.37451 243.133032 112.593716 243.976701 106.875512 C 244.820371 101.188556 242.508092 95.470352 237.977274 91.939439 L 147.735892 19.758832 L 237.977274 -52.453022 C 243.414255 -56.67137 245.539052 -63.88943 243.226773 -70.38881 C 240.945741 -76.888189 234.758832 -81.16903 227.884488 -81.044042 Z M 227.884488 -81.044042 " transform="matrix(0.125012,0,0,0.125012,0,26.877566)"/>
<path style="fill:none;stroke-width:3;stroke-linecap:round;stroke-linejoin:round;stroke:rgb(12.941177%,12.941177%,12.941177%);stroke-opacity:1;stroke-miterlimit:4;" d="M 280.691945 -63.170749 C 284.285352 -63.108255 287.753771 -61.827127 290.534755 -59.546095 L 396.368399 25.133318 C 400.180535 28.164279 402.367826 32.75759 402.367826 37.600878 C 402.367826 42.444165 400.180535 47.037477 396.368399 50.068437 L 290.534755 134.747851 C 286.097679 138.403752 280.035758 139.372409 274.661271 137.310106 C 269.286784 135.247803 265.443401 130.435763 264.599732 124.748806 C 263.756063 119.030602 266.037095 113.343645 270.599159 109.781485 L 360.840541 37.600878 L 270.599159 -34.579729 C 265.162178 -38.798076 263.037381 -46.047384 265.318413 -52.515516 C 267.630693 -59.014896 273.817602 -63.295737 280.691945 -63.170749 Z M 280.691945 -63.170749 " transform="matrix(0.125012,0,0,0.125012,0,26.877566)"/>
</g>
</svg>
